Adwaita++-Light/panel/16/zim-panel.svg

<svg height="16" width="16" xmlns="http://www.w3.org/2000/svg">
  <g fill="#444">
    <path d="m8.0003082 0c-4.4316367 0-7.99934422 3.568-7.99934422 8 0 .836914.12897293 1.643302.36520447 2.400391.00427-.01736.00533-.03544.009769-.05274.14487402-.564818.42427202-1.150295.92375215-1.613276.5873667-.544263 1.2706664-.691504 1.9783536-.703125.1171183-.247514.211039-.510942.4452759-.683594.0979279-.07218.2054885-.0427.3105214-.08984.012973-.02719.0059195-.02517.0214823-.05469.2834243-.537525.6536218-.94322 1.1717753-1.5273448.706951-.7969817 1.8047655-1.5360539 2.8220341-2.1972656 1.0177486-.6616254 1.8082188-1.1262957 2.1326378-1.2929687-.104098.053889.313361-.1789632.714785-.4042969.333774-.1873588.767747-.4203979 1.201073-.6484375-1.198158-.7142895-2.5954979-1.1328125-4.0973198-1.1328125zm7.3646308 4.8652343c-.292222.3938207-.589141.7853991-.824151 1.0859376-.275658.3524521-.535709.6842101-.501913.6386721v.002c-.214339.287799-.799479.987526-1.615101 1.876956-.814111.887781-1.721646 1.846335-2.6267381 2.414062-.5960781.373793-1.0464642.493196-1.5252649.675782-.0758438.423682-.2632075.823827-.634714 1.097656-.2295622.169202-.5086853.153432-.7753275.195312-.1251977.453679-.3431408.907406-.7362676 1.308594l-.019528.01953-.019528.01953c-.5422322.496323-1.205246.719805-1.8221162.791015l-.054683.0059h-.056636c-.015927.000068-.025274-.000048-.041013 0 1.1500094.63818 2.4748044 1.003819 3.8883505 1.003819 4.4316368 0 7.9993448-3.568 7.9993448-8 0-1.114223-.22669-2.1727251-.634714-3.1347657z" opacity=".3"/>
    <path d="m15.173548 1.0078125c-.308773-.034509-.602567.082641-.884693.1816406v.00391c-.441611.1726001-.967691.4269594-1.484253.6933594-.516564.2664-1.022545.543725-1.417852.765625-.395308.2219-.691752.393775-.746033.421875-.175261.09-1.0537639.5966875-2.0467075 1.2421875-.9929426.6453962-2.0749069 1.4101337-2.6189258 2.023434-.2693112.3036-.4798844.543528-.6522903.761719.3378724.109938.6464304.317035.869069.61914l1.818211 2.466797c.1006148.136527.171294.286022.2265434.439453.2895123-.145687.6039115-.325096 1.0292127-.591797.6993906-.4387 1.6268975-1.375487 2.4216765-2.242187s1.431774-1.641828 1.548701-1.7988284c.03934-.053.245438-.3103031.517536-.6582031.272097-.348.615384-.7953063.951094-1.2539063.335709-.4587.662973-.9290781.904223-1.3300781.120624-.2006.220318-.3831687.289039-.5429688.06872-.1596998.116839-.2900937.09765-.4335937-.03191-.2386-.152065-.3787719-.222638-.4511719-.0016-.0014-.0095-.011719-.0098-.011719-.08408-.1012-.177799-.1649906-.275366-.2128907-.106326-.05135-.211502-.080294-.314427-.091797zm-10.2882188 7.0019535c-.1935821-.02931-.3975229.01669-.5683128.142578-.3415797.251771-.413847.728705-.162096 1.070312l1.8162573 2.466797c.2517512.341608.7305979.413881 1.0721779.162109.34158-.251771.4138471-.728704.1620958-1.070312l-1.8182101-2.466797c-.1258755-.170804-.3083298-.275377-.5019121-.304687zm-1.8475047 1.023437c-.4158921.06177-.822863.217195-1.0585071.435547-.323219.2996-.5263701.704553-.6347136 1.126953-.1779531.6935-.1899034 1.690434-.3261451 2.427734-.0676715.366-.37682113.935629-.9530469 1.673828-.14717674.247301 0 .279297 0 .279297.08260923.058.23317559-.000203.30856851-.0332 1.33338789-1.096603 2.21422259-.940568 3.77508119-.947268.4591188-.053.9132174-.216257 1.2616153-.535157.2263651-.231007.3513215-.433616.4413701-.634765-.2641317-.119595-.5043189-.297132-.6854907-.542969l-1.8182104-2.466797c-.1742442-.236437-.2706776-.506999-.3105213-.783203z" fill-rule="evenodd"/>
  </g>
</svg>

<svg xmlns="http://www.w3.org/2000/svg" width="16" height="16" version="1.1">
 <defs>
  <style id="current-color-scheme" type="text/css">
   .ColorScheme-Text { color:#444444; } .ColorScheme-Highlight { color:#4285f4; }
  </style>
 </defs>
 <path style="opacity:0.3;fill:currentColor" class="ColorScheme-Text" d="M 8.0003082,0 C 3.5686715,0 9.6398098e-4,3.568 9.6398098e-4,8 c 0,0.836914 0.12897292902,1.643302 0.36520446902,2.400391 0.00427,-0.01736 0.00533,-0.03544 0.009769,-0.05274 C 0.52081147,9.782833 0.80020947,9.197356 1.2996896,8.734375 1.8870563,8.190112 2.570356,8.042871 3.2780432,8.03125 3.3951615,7.783736 3.4890822,7.520308 3.7233191,7.347656 3.821247,7.275476 3.9288076,7.304956 4.0338405,7.257816 4.0468135,7.230626 4.03976,7.232646 4.0553228,7.203126 4.3387471,6.665601 4.7089446,6.259906 5.2270981,5.6757812 5.9340491,4.8787995 7.0318636,4.1397273 8.0491322,3.4785156 9.0668808,2.8168902 9.857351,2.3522199 10.18177,2.1855469 10.077672,2.2394359 10.495131,2.0065837 10.896555,1.78125 11.230329,1.5938912 11.664302,1.3608521 12.097628,1.1328125 10.89947,0.418523 9.5021301,0 8.0003082,0 Z M 15.364939,4.8652343 C 15.072717,5.259055 14.775798,5.6506334 14.540788,5.9511719 14.26513,6.303624 14.005079,6.635382 14.038875,6.589844 l 0,0.002 C 13.824536,6.879643 13.239396,7.57937 12.423774,8.4688 11.609663,9.356581 10.702128,10.315135 9.7970359,10.882862 9.2009578,11.256655 8.7505717,11.376058 8.271771,11.558644 8.1959272,11.982326 8.0085635,12.382471 7.637057,12.6563 7.4074948,12.825502 7.1283717,12.809732 6.8617295,12.851612 6.7365318,13.305291 6.5185887,13.759018 6.1254619,14.160206 l -0.019528,0.01953 -0.019528,0.01953 c -0.5422322,0.496323 -1.205246,0.719805 -1.8221162,0.791015 l -0.054683,0.0059 -0.056636,0 c -0.015927,6.8e-5 -0.025274,-4.8e-5 -0.041013,0 C 5.2619671,15.634361 6.5867621,16 8.0003082,16 c 4.4316368,0 7.9993448,-3.568 7.9993448,-8 0,-1.114223 -0.22669,-2.1727251 -0.634714,-3.1347657 z"/>
 <path style="fill:currentColor;fill-rule:evenodd" class="ColorScheme-Text" d="m 15.173548,1.0078125 c -0.308773,-0.034509 -0.602567,0.082641 -0.884693,0.1816406 l 0,0.00391 c -0.441611,0.1726001 -0.967691,0.4269594 -1.484253,0.6933594 -0.516564,0.2664 -1.022545,0.543725 -1.417852,0.765625 -0.395308,0.2219 -0.691752,0.393775 -0.746033,0.421875 C 10.465456,3.1642225 9.5869531,3.67091 8.5940095,4.31641 7.6010669,4.9618062 6.5191026,5.7265437 5.9750837,6.339844 5.7057725,6.643444 5.4951993,6.883372 5.3227934,7.101563 c 0.3378724,0.109938 0.6464304,0.317035 0.869069,0.61914 l 1.818211,2.466797 c 0.1006148,0.136527 0.171294,0.286022 0.2265434,0.439453 0.2895123,-0.145687 0.6039115,-0.325096 1.0292127,-0.591797 0.6993906,-0.4387 1.6268975,-1.375487 2.4216765,-2.242187 0.794779,-0.8667 1.431774,-1.641828 1.548701,-1.7988284 0.03934,-0.053 0.245438,-0.3103031 0.517536,-0.6582031 0.272097,-0.348 0.615384,-0.7953063 0.951094,-1.2539063 0.335709,-0.4587 0.662973,-0.9290781 0.904223,-1.3300781 0.120624,-0.2006 0.220318,-0.3831687 0.289039,-0.5429688 0.06872,-0.1596998 0.116839,-0.2900937 0.09765,-0.4335937 -0.03191,-0.2386 -0.152065,-0.3787719 -0.222638,-0.4511719 -0.0016,-0.0014 -0.0095,-0.011719 -0.0098,-0.011719 C 15.679231,1.2112997 15.585512,1.1475091 15.487945,1.099609 15.381619,1.048259 15.276443,1.019315 15.173518,1.007812 Z M 4.8853292,8.009766 C 4.6917471,7.980456 4.4878063,8.026456 4.3170164,8.152344 3.9754367,8.404115 3.9031694,8.881049 4.1549204,9.222656 l 1.8162573,2.466797 c 0.2517512,0.341608 0.7305979,0.413881 1.0721779,0.162109 0.34158,-0.251771 0.4138471,-0.728704 0.1620958,-1.070312 L 5.3872413,8.314453 C 5.2613658,8.143649 5.0789115,8.039076 4.8853292,8.009766 Z M 3.0378245,9.033203 c -0.4158921,0.06177 -0.822863,0.217195 -1.0585071,0.435547 -0.323219,0.2996 -0.5263701,0.704553 -0.6347136,1.126953 -0.1779531,0.6935 -0.1899034,1.690434 -0.3261451,2.427734 -0.0676715,0.366 -0.37682113,0.935629 -0.9530469,1.673828 -0.14717674,0.247301 0,0.279297 0,0.279297 0.08260923,0.058 0.23317559,-2.03e-4 0.30856851,-0.0332 C 1.7073682,13.846759 2.5882029,14.002794 4.1490615,13.996094 4.6081803,13.943094 5.0622789,13.779837 5.4106768,13.460937 5.6370419,13.22993 5.7619983,13.027321 5.8520469,12.826172 5.5879152,12.706577 5.347728,12.52904 5.1665562,12.283203 L 3.3483458,9.816406 C 3.1741016,9.579969 3.0776682,9.309407 3.0378245,9.033203 Z"/>
</svg>
